X:475
T: Es reiten drei Reiter zum Tore hinaus (5-71), S. 116
N: P0745
O: Lothringen
S: MERKELBACH-PINCK, Angelika: Verklingende Weisen, Bd 5, Kassel 1962]
R: Liebe, Abschied]
M: 3/8
L: 1/8
K: Eb
B, | EEE | EEE | EEG | F2E | F2
F | FFF | F2F | FFA | G2F | B2
B | G2G | G2B | FFF | F2
B | GGG | B2G | G2F | F2
B | G2G | F2F | E2
B | BBG | FEF | E2

@@@ Tune index: 8025
